X:1
T: The Kilt is my Delight
C:
R:Reel
Q: 232
K:D
M:4/4
L:1/8
|:Bd|A2 AB AB df|ed ef ed Bd|A2 AB AB df|ed ef d2 Bd|
A2 AB AB df|ed ef ed Bd|A2 AB AB df|ed ef d2:|
|:ef|g2 ag f2 gf|ed ef ed Bd|g2 ag f2 gf|ed ef d2 ef|
gf ag fe gf|ed ef ed Bc|de dB AB df|ed ef d2:|
